dist/img/picture/brands/bpw.svg

<svg width="62" height="62" viewBox="0 0 62 62" fill="none" xmlns="http://www.w3.org/2000/svg">
<path fill-rule="evenodd" clip-rule="evenodd" d="M12.9952 41.533V43.6793L12.9462 43.7236C10.8369 44.1738 8.75768 44.7039 6.71319 45.3109C6.00669 44.1062 5.38694 42.8444 4.86264 41.5344C3.60484 38.3922 2.89529 34.9719 2.85175 31.3889H2.76151L2.77477 31.3764C2.77333 31.2596 2.84959 31.1576 2.84959 31.0406C2.84959 15.4372 15.4984 2.78814 31.1019 2.78814C46.7052 2.78814 59.3539 15.4372 59.3539 31.0406C59.3539 31.157 59.3528 31.273 59.3517 31.3889C59.3074 34.979 58.573 38.3929 57.2961 41.533H57.295C56.7248 42.9363 56.0465 44.283 55.2737 45.5663C53.2761 44.9513 51.2666 44.415 49.2081 43.9491V41.533V39.0337C49.2081 39.0337 49.5675 38.09 50.6913 38.09V31.3889V31.3503C49.5675 31.3503 49.2081 30.4068 49.2081 30.4068V24.2962H46.4229V31.3889V33.1923L38.7098 33.1736L39.2644 31.3889L40.8868 26.1704H38.3747L37.1295 29.9959L37.1184 23.2791H39.2486C40.496 23.302 41.8592 22.8444 42.8756 22.0354C44.1004 21.0652 44.7075 19.4019 44.7075 17.9231C44.7075 15.497 43.3575 13.0015 40.2616 13.0015H34.4553V30.3303L37.0284 30.3069L36.6548 31.3889L36.0319 33.1923L34.7414 33.1609L34.0206 31.3889L31.8345 26.0131H29.4215L27.2059 31.3889L26.4626 33.1923H25.1591L24.5799 31.3889L24.183 30.1515C28.0662 29.0256 28.6881 22.9108 25.6034 21.2497C27.4351 20.6737 29.4762 13.0015 22.7175 13.0015H17.4959V30.3303H21.6545L21.9867 31.3889L22.5528 33.1923H15.7809V31.3889V24.2962H12.9952V30.4068C12.9952 30.4068 12.6357 31.3503 11.5122 31.3503L11.4661 31.4658L11.5122 31.5001V38.09C12.6357 38.09 12.9952 39.0337 12.9952 39.0337V41.533ZM2.15618 41.533C6.44707 53.3684 17.7872 61.8217 31.1019 61.8217C44.4164 61.8217 55.7561 53.3684 60.0474 41.5358L58.6712 41.5344L60.0474 41.533C61.1977 38.3636 61.8417 34.9488 61.8808 31.3889C61.8823 31.273 61.883 31.1568 61.883 31.0406C61.883 14.0404 48.102 0.259418 31.1019 0.259418C14.1015 0.259418 0.320604 14.0404 0.320604 31.0406C0.320604 31.1558 0.321325 31.2707 0.32219 31.3873V31.3889L0.245209 31.3744L0.322622 31.4204C0.365726 34.9691 1.00911 38.3731 2.15618 41.533ZM46.3756 41.533L46.3598 43.3529C41.2577 42.3816 35.9917 41.8735 30.6066 41.8735C25.5332 41.8735 20.6011 42.3241 15.7683 43.1853L15.7714 41.533L15.7809 36.2478L23.4939 36.221L24.2425 38.6286H26.807L27.7652 36.2478L33.4338 36.2367L34.449 38.6286H37.0136L37.7846 36.2478H46.4229L46.3756 41.533ZM31.4023 31.3889L32.1812 33.2238L29.1575 33.2373L29.943 31.3889L30.6729 29.6703L31.4023 31.3889ZM20.1023 20.0024V15.5432H21.6041C23.0828 15.5893 24.6609 15.6487 24.6609 17.1146C24.6609 20.4644 21.6778 19.8887 20.703 20.0024H20.1023ZM37.1099 15.5432H38.5887C40.414 15.5432 42.0906 15.8436 42.0906 17.8305C42.0906 19.933 40.252 20.6356 38.843 20.6356H37.1099V15.5432ZM20.8529 27.7261L20.3694 26.1704H22.8815L23.2719 27.3696C24.1421 27.0283 24.9227 26.4285 24.9227 25.099C24.9227 23.2275 23.36 22.8499 21.35 22.8499H20.1023V27.789H20.7955L20.8529 27.7261ZM53.6839 48.021C48.5286 54.8664 40.3317 59.293 31.1019 59.293C21.7631 59.293 13.4828 54.7617 8.33918 47.7787C15.3974 45.6418 22.851 44.4802 30.6066 44.4802C38.6315 44.4802 46.3694 45.7103 53.6418 47.9924L53.6839 48.021Z" fill="#154281"/>
</svg>

<svg width="62" height="62" viewBox="0 0 62 62" fill="none" xmlns="http://www.w3.org/2000/svg"><path fill-rule="evenodd" clip-rule="evenodd" d="M12.995 41.533v2.146l-.049.045c-2.11.45-4.188.98-6.233 1.587a28.162 28.162 0 01-3.861-13.922h-.09l.013-.013c-.002-.116.075-.218.075-.335 0-15.604 12.648-28.253 28.252-28.253 15.603 0 28.252 12.65 28.252 28.253l-.002.348a27.761 27.761 0 01-2.056 10.144h-.001a28.927 28.927 0 01-2.021 4.033 82.252 82.252 0 00-6.066-1.617v-4.916s.36-.943 1.483-.943v-6.74c-1.123 0-1.483-.943-1.483-.943v-6.11h-2.785v8.895l-7.713-.018.554-1.785 1.623-5.219h-2.512l-1.245 3.826-.012-6.717h2.13c1.248.023 2.611-.435 3.628-1.244 1.224-.97 1.832-2.633 1.832-4.112 0-2.426-1.35-4.921-4.446-4.921h-5.807V30.33l2.573-.023-.373 1.082-.623 1.803-1.29-.031-.721-1.772-2.187-5.376h-2.412l-2.216 5.376-.743 1.803h-1.304l-.58-1.803-.396-1.238c3.883-1.125 4.505-7.24 1.42-8.901 1.832-.576 3.873-8.248-2.886-8.248h-5.221V30.33h4.159l.332 1.059.566 1.803H15.78v-8.896h-2.786v6.11s-.36.944-1.483.944l-.046.116.046.034v6.59c1.124 0 1.483.944 1.483.944v2.499zm-10.839 0c4.291 11.835 15.631 20.289 28.946 20.289 13.314 0 24.654-8.454 28.945-20.286l-1.376-.002 1.376-.001a30.671 30.671 0 001.836-10.492c0-17-13.781-30.782-30.781-30.782S.32 14.04.32 31.041l.001.346v.002l-.077-.015.078.046a30.679 30.679 0 001.833 10.113zm44.22 0l-.016 1.82a84.176 84.176 0 00-15.753-1.48c-5.074 0-10.006.451-14.839 1.312l.003-1.652.01-5.285 7.713-.027.748 2.408h2.565l.958-2.381 5.669-.011 1.015 2.392h2.565l.77-2.381h8.639l-.047 5.285zM31.402 31.389l.78 1.835-3.025.013.786-1.848.73-1.719.73 1.719zm-11.3-11.387v-4.459h1.502c1.479.046 3.057.106 3.057 1.572 0 3.35-2.983 2.774-3.958 2.887h-.6zm17.008-4.459h1.479c1.825 0 3.502.3 3.502 2.288 0 2.102-1.839 2.805-3.248 2.805H37.11v-5.093zM20.853 27.726l-.484-1.556h2.512l.39 1.2c.871-.342 1.652-.942 1.652-2.271 0-1.872-1.563-2.25-3.573-2.25h-1.248v4.94h.694l.057-.063zm32.83 20.295c-5.154 6.845-13.351 11.272-22.581 11.272-9.339 0-17.62-4.531-22.763-11.514a76.624 76.624 0 0122.268-3.299c8.025 0 15.762 1.23 23.035 3.512l.042.029z" fill="#154281"/></svg>
